X:18
T:GB/7a/18 Murder of Maria Marten-0
%%VWML:GB-7a-18-0
F:http://www.vwml.org/record/GB/7a/18
T:Version 1 of 2
C:Mr Jim Wharton (c. 60) Stanton St. John, Oxon. V. 07
C:Transcribed by Simon Furey and Lewis Jones
L:1/8
M:4/4
I:linebreak $
K:Faeo
cd | e2 c2 cB A2 | B2 B2 c2 Bd | c2 B2 BA F2 | E6 AG |$ F2 F2 FEFG | A2 A2 B2 AB | c3 A BA FE | F6 |]

